public/images/hand.svg

<svg width="39" height="40" viewBox="0 0 39 40" fill="none" xmlns="http://www.w3.org/2000/svg">
<path d="M1.56353 10.9482C2.33872 10.7378 4.33362 10.9671 5.95635 11.9049C8.83025 13.5657 9.28046 15.7658 9.96572 18.3714L19.1836 2.42103C19.6617 1.59969 20.4429 0.999466 21.3568 0.751398C22.2706 0.503329 23.2427 0.627557 24.061 1.09696C24.6545 1.43997 25.1019 1.93715 25.4025 2.50632C26.5232 1.5234 28.1808 1.29265 29.529 2.07177C30.8772 2.85089 31.5032 4.40139 31.2137 5.86248C31.8741 5.8344 32.5279 5.99324 33.1003 6.32087C34.4518 7.10189 35.0785 8.655 34.7829 10.1192C35.4455 10.0893 36.1019 10.2481 36.6763 10.5771C37.492 11.0514 38.0853 11.8317 38.3267 12.7474C38.568 13.6632 38.4377 14.64 37.9643 15.4642L27.7548 33.1305C24.3318 39.0535 16.7932 41.0999 10.9139 37.7022C8.0663 36.0566 6.14142 33.4329 5.29319 30.4945L5.28293 30.5085L0.578569 12.6526C0.381842 11.9114 0.823111 11.1478 1.56353 10.9482ZM7.12064 29.951C7.85781 32.5264 9.56028 34.7097 11.8721 36.0442C16.8356 38.9127 23.2218 37.1791 26.1116 32.1787L36.3202 14.5141C36.7815 13.7157 36.5116 12.6914 35.7191 12.2334C34.9267 11.7754 33.9044 12.053 33.443 12.8513L28.0511 22.1813C27.9241 22.401 27.7158 22.5616 27.4719 22.6278C27.228 22.694 26.9684 22.6604 26.7504 22.5344C26.5324 22.4084 26.3737 22.2003 26.3093 21.9559C26.2449 21.7115 26.28 21.4508 26.407 21.2312L32.7451 10.2562C33.2065 9.45784 32.9366 8.4335 32.1441 7.97553C31.7652 7.75769 31.315 7.69902 30.8912 7.81225C30.4674 7.92547 30.104 8.20146 29.8798 8.58042L23.5298 19.5684C23.4028 19.7881 23.1945 19.9487 22.9506 20.0149C22.7067 20.0811 22.4471 20.0475 22.2291 19.9215C22.0111 19.7955 21.8524 19.5874 21.788 19.343C21.7236 19.0986 21.7587 18.8379 21.8857 18.6183C29.4672 5.49173 28.1572 7.76609 29.1738 6.00708C29.6352 5.20874 29.3652 4.1844 28.5727 3.72643C27.7803 3.26846 26.758 3.54598 26.2966 4.34433L19.0085 16.9555C18.8815 17.1752 18.6732 17.3358 18.4293 17.402C18.1854 17.4682 17.9258 17.4346 17.7078 17.3086C17.4898 17.1826 17.3311 16.9745 17.2667 16.7301C17.2023 16.4857 17.2374 16.225 17.3644 16.0054L23.7049 5.03394C24.1662 4.23559 23.8963 3.21125 23.1038 2.75328C22.3114 2.29531 21.29 2.57118 20.8277 3.37118L11.1485 20.1198C10.7684 20.7774 10.0602 21.1149 9.35558 21.059C9.16022 21.0435 8.97483 20.9676 8.82488 20.8418C8.67493 20.7159 8.56778 20.5464 8.51813 20.3563C7.65812 17.093 7.47422 14.9938 4.99819 13.5628C4.2567 13.1343 3.43593 12.8809 2.59121 12.817L7.12064 29.951Z" fill="white"/>
</svg>

<svg xmlns="http://www.w3.org/2000/svg" width="39" height="40" fill="none"><path fill="#fff" d="M1.564 10.948c.775-.21 2.77.02 4.392.957 2.874 1.66 3.324 3.86 4.01 6.466l9.218-15.95a3.612 3.612 0 0 1 2.173-1.67 3.558 3.558 0 0 1 2.704.346c.593.343 1.04.84 1.341 1.41 1.121-.984 2.779-1.214 4.127-.435 1.348.779 1.974 2.33 1.685 3.79a3.493 3.493 0 0 1 1.886.459c1.352.78 1.978 2.334 1.683 3.798a3.492 3.492 0 0 1 1.893.458 3.557 3.557 0 0 1 1.65 2.17 3.61 3.61 0 0 1-.362 2.717L27.754 33.13c-3.422 5.923-10.96 7.97-16.84 4.572-2.848-1.645-4.773-4.27-5.62-7.207l-.011.014L.579 12.652a1.396 1.396 0 0 1 .985-1.705ZM7.12 29.951a10.303 10.303 0 0 0 4.751 6.093c4.964 2.869 11.35 1.135 14.24-3.865L36.32 14.514a1.67 1.67 0 0 0-.6-2.28 1.67 1.67 0 0 0-2.277.617l-5.392 9.33a.96.96 0 0 1-.58.447.946.946 0 0 1-1.162-.672.96.96 0 0 1 .098-.725l6.338-10.975a1.67 1.67 0 0 0-.6-2.28 1.655 1.655 0 0 0-1.254-.164 1.68 1.68 0 0 0-1.011.768l-6.35 10.988a.96.96 0 0 1-.58.447.946.946 0 0 1-1.162-.672.96.96 0 0 1 .098-.725c7.581-13.126 6.271-10.852 7.288-12.61a1.67 1.67 0 0 0-.601-2.282 1.67 1.67 0 0 0-2.276.618l-7.288 12.612a.96.96 0 0 1-.58.446.946.946 0 0 1-1.162-.672.96.96 0 0 1 .097-.725l6.34-10.971a1.67 1.67 0 0 0-.6-2.28 1.67 1.67 0 0 0-2.276.617l-9.68 16.749a1.891 1.891 0 0 1-1.792.939.941.941 0 0 1-.838-.703c-.86-3.263-1.044-5.362-3.52-6.793a5.658 5.658 0 0 0-2.407-.746l4.53 17.134Z"/></svg>
